-----BEGIN PGP PUBLIC KEY BLOCK-----
Comment: ID do usuário:	Axok!_OS Package Manager Modules Signing Key <axok.os.team@gmail.com>
Comment: Válido a partir de:	27/05/2026 22:38
Comment: Tipo:	RSA de 4.096 bits (chave privada disponível)
Comment: Uso:	Assinatura, Criptografia, Certificando IDs de usuário
Comment: Impressão digital:	CCF7 2463 CD6A 7AC5 CA14  7313 70DC 662D BC28 1E7D

mQINBGoXnH0BEADk5cfYc4BD1yGJBf5aB14KGM4feSepwk4KgI48bZeGfZUN8MCW
5lOpAO9qEPmYNJNBwe44ckqcNX5D2xtOd+UwykOipEKNvIN7w9zzvGC9L7AkQ4cB
12fPCFR2Dia2w0YUkqRFb4rONh4RhsCrtM7sD8XZvA0KLHfXweoXb7qb+b0Svh5W
bCB0lnKAh1YVt5I9Yrd5mcEXl+bIyumtP2vwqNF8ejB/L+oUQT2EICasn8kCeAB5
PGYG3CMzgD7ho+DLaQnPNZG905LUiAhCFY0+mmFAn9YX6lPGxWFqh2itmCiWv7hL
3AWuqJxFFYC7bsWdjVc/GQ6fIc5qrDRvrwUeXCiSHUDf7RXDJkeDfhg1B6QApQVm
UZ1+vWqc3IewEETx6xNfVyKR7Y0HVlCJzLQ3NmC1xySL+mJhR+jyikdlf2UjScco
/Vadz+4QZiAz6YKT8EFC2dU0WL9SXH2Njli7MregOauHZYvl7jhtAJlECK4/WDum
jq7V3jMq8DS8GLjNaA0XIJ0AVNGA/2stPMlnjii04h8AHj6j0dlj8lZPClMn3z1w
YgpjmTL32x3vvEVCURjSAvh4AA4qD0HBf2eRE2jR0ERgB7wjZU223+rKJ83ZIV5F
oQRGIa/FEatQ9FCccyri3vFJQCjH5Jkjo1U9VMEEWnkBHT545on2yiQQ3wARAQAB
tEVBeG9rIV9PUyBQYWNrYWdlIE1hbmFnZXIgTW9kdWxlcyBTaWduaW5nIEtleSA8
YXhvay5vcy50ZWFtQGdtYWlsLmNvbT6JAk4EEwEKADgWIQTM9yRjzWp6xcoUcxNw
3GYtvCgefQUCahecfQIbAwULCQgHAgYVCgkICwIEFgIDAQIeAQIXgAAKCRBw3GYt
vCgefQkyEACblSZZaDwx0zIq7p9lmkEmW6cG/hsY0WCh2w7YU7xor2M2xFOoVGhe
9vBbPdgbvN5WE0Aw2T0/HplkQJLJK8Ha3RhWVPUFQnLS02TME4vzc54EtJHsZpX+
a3cMERy4aRS4jxSs7dfcpvqEJDpPPuyWp8sSeR+OpPTjAIYA49V/nIG0m3l24GBv
N6LU/lRXyna+1OYKEqCmITDT0uOfHs/kdyJbx/TWrts8Kbo0AanPeZ5L8NJcOy0O
D2DvA3875qzOtXtilKDFcQ/YkCu/J5GA01TjJ6Nqtc2SDgvY9BTDNXq3x/yzEAG8
FbpHZJdMlj513MyCQhxn+GccILAXBCbsE0u17UT7UnmEbXyEVE6Dp6+5bjVGT0A8
Pr2wylTJJIOXjs/uIFSBm8acMJQb/UYy2eB2T7aVXwSwK0Dzq24ktU7q2Wi7nMGU
hOo+Y6xiK+9bo4yTwj/q2IgmNI4O9GjotkR8Jh4X9nOJ6Niod4krJ+b0w4J3yokq
CVCPg16KGJYjHmcZahJXCBfJX8XeZPS3QeRPwn82vhJCIlzMozT8cRqRqFjK/uk8
XX9naa2qPrEWfpVS/v6vwk4botKGIqcE3lqBI5X2mDZVMUDd3u/ag9H5YI/EVXcr
l97i+6LLSGdnSzzZHjQfKLkByoEzMUypcp5NiML+XbzP79+hdthIvLkCDQRqF5x9
ARAAz0Deq1+YJBwvqmFA6pnpSp16xhuTK4A91NE3Ct0k1RsGQ+mhAvBX2FIHffOM
r0/3M5YD3sueG9L5sggIXJg+evtWbllG1z0/x3kh7o39T6SkBGb1RgTZQQKAYMtL
UEFXSm1TUXDPsttZ2AqyIHW1n3LUJc6lWOI9XzFgY6kfYjjOcXPMyF+q7vTqCT+q
zu2PvcMTe0RoXAfHzhNH3ofLAvUJ7V7Ce9D8bh6BHeN2+p5HVj427SZjpxEWlgfU
5l/HgZg95YzLzwkb+MiCNOz51dePvZtR4rASrrEwPaxGy8LdSkKw+XjRcQnXcyTu
QN+9dM5JVwRR7Lfa4PPjcWkOLX69hhWZLIJeNHyLA6Ol/eO7Z3Ehrk+Bv8MvETK5
Y5Nxn21tBbWqU1PKEYeJnGde7+baIh1y70FCjmjqYA30CGySOgPzFrqiqxeB47yK
1ahWuiyMpwVl/c8ACZn5k8h15kD6nECd7s5bI2iz+rXMI9I+HT0zd/StziJIr0ig
7WqX/g45ZHoRYb5XWinz64bg9tqpxRcvHtxV/VMjG5KI+AJw6SuQRJ0oEFS6Iud7
96YD4rCZa9FgADiOZmkCXC5cXuYJy9YpHD24yi1tS8Q2ify3X9pM/qkTyBHwC8ZY
YrWxpZ32G90s3FF+gqIlWZELslYYUhFCZznwunn2nnO4cREAEQEAAYkCNgQYAQoA
IBYhBMz3JGPNanrFyhRzE3DcZi28KB59BQJqF5x9AhsMAAoJEHDcZi28KB59mssP
/REEpAYJuqPK2vgfsVoUbhCNRaMIeGcD7T8Jve1P5f4eY0EzxYusLSaxmeJmUVKN
D4Qk6rAQHnz32BCqZ1VvZDurlYNanQG1qcfc6/o3HAUVkpWUAXRunD0g0tUlu6J7
nufa4cBrkc9qsZV+cFPgpoi3aD8hzL8CTXrt2pHJLxVGWA55TNz2o0g1tBTNAFbe
zLXj/2xlSkBzWCdT6lv3G4IOh94FGDuw9I2hoX8f1kLr+2+6j8Brf6dAYxxQY5d1
7/alPiBRvVxJ5wFpCb5Wxui8SrZDPKIgwTHoAD4Wb9YsDmFEKpkwI4xIZxdy4me/
EFZtQuD0myjjH10hGc0yDJlksYXlky0bnXK4AdgN9DKy/I1+2NQYYtlkoc6Hv7dn
7SLsLWIydJIGQC24sHqkHRerx+K7kMe3KW7n3i8j+AxI4qcuCxBzS5o3wzxrYxTM
YCUIwifP6X7QoY3CiXNPOid6a+9ZmmLY8WybNb+3faCJ7EzKHYG/sqbO4SXC0umQ
O8Gu55yENnxG2FwQizHqNwXOtnB/kV8Xk5vMHRL5tj3d01Tk7+WgZeuvhg4RS/f5
f/07FftBQVQawfQvxeD3+W1MGPGzeNxpCp9FLvci5bbWdDyVAqKXO0hN0368eQMI
fsOrvMRGRKb3pE/TEiz4N6+GMs4b0rdiJ1zmsQgdd/dw
=YP0J
-----END PGP PUBLIC KEY BLOCK-----
